X: 17276
T: Herman The German's
R: jig
M: 6/8
K: Eminor
|:~E3 EDE|G2E F3|BAG ABA|GFE ^D2F|
~E3 EDE|G2E F3|BAG ABA|1 GFE E2D:|2 GFE E2B||
|:BAB geB|feB ~g3|BAB geB|feB ~a3|
BAB geB|feB ~e3|BAG ABA|1 GFE E2B:|2 GBd BAG||

